src/DGGeoclicker/skin/light/img/DGGeoclicker__purposeSettlement_light.svg

<svg xmlns="http://www.w3.org/2000/svg" width="12" height="12"><path fill="#666" d="M9 9c-.765 0-1.238.522-1.741 1.022.536.358.792 1.028.62 1.978h4.121c0-1.54-1.465-3-3-3zm-2.868 1.248c-.965 0-1.747.784-1.747 1.751h3.494c0-.967-.782-1.751-1.747-1.751zm3.868-9.248v-1h-3v1h-2v5l1 1v-5h1v5l1 1v-6h1v6h1v-6h1v7l1 .607v-8.607h-2zm-3.34 8.539l.061-.06c.182-.182.383-.339.593-.475v-.59l-1.183-1.227-3.131.813v4h.62c0-1.388 1.127-2.517 2.512-2.517.18-.001.358.019.528.056zm-4.66 2.461zm-1-10l-1 3v7h2v-7l-1-3zm.111 4.955c-.307 0-.555-.249-.555-.555 0-.307.248-.555.555-.555s.554.248.554.555c0 .306-.247.555-.554.555z"/></svg>

<svg xmlns="http://www.w3.org/2000/svg" width="12" height="12">
    <path d="M 9,9 C 8.235,9 7.762,9.522 7.259,10.022 7.795,10.38 8.051,11.05 7.879,12 H 12 C 12,10.46 10.535,9 9,9 z m -2.868,1.248 c -0.965,0 -1.747,0.784 -1.747,1.751 h 3.494 c 0,-0.967 -0.782,-1.751 -1.747,-1.751 z M 10,1 V 0 H 7 V 1 H 5 V 6 L 6,7 V 2 H 7 V 7 L 8,8 V 2 h 1 v 6 h 1 V 2 h 1 v 7 l 1,0.607 V 1 H 10 z M 6.66,9.539 6.721,9.479 C 6.903,9.297 7.104,9.14 7.314,9.004 V 8.414 L 6.131,7.187 3,8 v 4 H 3.62 C 3.62,10.612 4.747,9.483 6.132,9.483 6.312,9.482 6.49,9.502 6.66,9.539 z M 2,12 z M 1,2 0,5 v 7 H 2 V 5 L 1,2 z M 1.111,6.955 C 0.804,6.955 0.556,6.706 0.556,6.4 c 0,-0.307 0.248,-0.555 0.555,-0.555 0.307,0 0.554,0.248 0.554,0.555 0,0.306 -0.247,0.555 -0.554,0.555 z" fill="#666"/>
</svg>
